X: 4489
T: Bonny Breast Knot
R: reel
M: 4/4
K: Gmajor
|:dc|B2 G2 G2 AB|cBAG A2 D2|GABA GABA|GA B2 d2>c2|
B2 G2 G2 AB|cBAG A2 D2|GA B2 A2 dc|B2 G2 G2:|
|:Bc|d4 d2>e2|dcBA G2 B2|AGAB cBcd|e2 A2 A2 Bc|
d4 d2>e2|dcBA G2 B2|A2 c2 D2 EF|G2 B2 G2:|

